src/assets/icons/14-icon-git.svg

<?xml version="1.0" encoding="utf-8"?>
<svg width="64" height="64" viewBox="0 0 64 64" fill="none" xmlns="http://www.w3.org/2000/svg">
  <path d="M 62.513 28.88 L 35.229 1.595 C 34.392 0.759 33.219 0.257 32.048 0.257 C 30.877 0.257 29.704 0.759 28.868 1.595 L 23.009 7.455 L 29.873 14.318 C 30.543 13.982 31.212 13.814 32.048 13.814 C 34.895 13.814 37.069 15.991 37.069 18.836 C 37.069 19.674 36.903 20.343 36.567 21.013 L 43.264 27.708 C 43.933 27.373 44.603 27.205 45.439 27.205 C 48.286 27.205 50.46 29.382 50.46 32.227 C 50.46 35.073 48.286 37.249 45.439 37.249 C 42.594 37.249 40.418 35.073 40.418 32.227 C 40.418 31.391 40.584 30.721 40.918 30.052 L 34.224 23.355 C 34.057 23.355 33.889 23.524 33.722 23.524 L 33.722 40.93 C 35.731 41.601 37.069 43.442 37.069 45.618 C 37.069 48.464 34.895 50.64 32.048 50.64 C 29.203 50.64 27.027 48.464 27.027 45.618 C 27.027 43.442 28.366 41.601 30.374 40.93 L 30.374 23.355 C 28.366 22.685 27.027 20.846 27.027 18.67 C 27.027 17.832 27.193 17.164 27.528 16.494 L 20.667 9.63 L 1.583 28.88 C 0.747 29.716 0.245 30.889 0.245 32.061 C 0.245 33.231 0.747 34.404 1.583 35.241 L 28.868 62.524 C 29.704 63.361 30.877 63.863 32.048 63.863 C 33.219 63.863 34.392 63.361 35.229 62.524 L 62.513 35.241 C 63.349 34.404 63.851 33.231 63.851 32.061 C 63.851 30.889 63.349 29.716 62.513 28.88 Z" fill="#F4511E" style=""/>
</svg>

<svg xmlns="http://www.w3.org/2000/svg" width="64" height="64" fill="none"><path fill="#F4511E" d="M62.51 28.88 35.23 1.59A4.58 4.58 0 0 0 32.05.26c-1.17 0-2.35.5-3.18 1.33L23 7.46l6.86 6.86c.67-.34 1.34-.5 2.18-.5a4.93 4.93 0 0 1 5.02 5.02c0 .83-.17 1.5-.5 2.17l6.7 6.7c.66-.34 1.33-.5 2.17-.5a4.93 4.93 0 0 1 5.02 5.02 4.93 4.93 0 0 1-5.02 5.02 4.93 4.93 0 0 1-5.02-5.02c0-.84.16-1.5.5-2.18l-6.7-6.7c-.16 0-.33.17-.5.17v17.41c2.01.67 3.35 2.51 3.35 4.69a4.93 4.93 0 0 1-5.02 5.02 4.93 4.93 0 0 1-5.02-5.02 4.88 4.88 0 0 1 3.34-4.69V23.36c-2-.68-3.34-2.51-3.34-4.69 0-.84.16-1.5.5-2.18l-6.86-6.86L1.58 28.88c-.83.84-1.33 2-1.33 3.18 0 1.17.5 2.34 1.33 3.18l27.29 27.28c.83.84 2 1.34 3.18 1.34 1.17 0 2.34-.5 3.18-1.34L62.5 35.24a4.58 4.58 0 0 0 1.34-3.18c0-1.17-.5-2.34-1.34-3.18Z"/></svg>
